!!!!SEGMENT: pl-gd--ee-1638--007-007_marenzio-luca--il-terzo-libro-de-madrigalia-a-sei-voci-parto-da-voi.krn
!!!cenid: 15xx:848
!!!COM: Marenzio, Luca
!!!COM-rismID: pe30003955
!!!CDT: ~1553-1599/08/22
!!!CNT: Italian
!!!GTL: Il Terzo Libro de madrigalia a sei voci
!!!OTL: Parto da voi
!!!OMV: 007
!!!PDT: 1585
!!!AGN:
!!!SMS-siglum: PL-GD
!!!SMS-shelfmark: Ee 1638
!!!SMS-variant:
!!!SMS-altvar:
!!!SMS-shelfwork: 007-007 G
!!!NIFC-rismSourceID: 990039250
!!!NIFC-islandoraID: pl-gd:57883
!!!URL-pdf-islandora: https://repozytorium.nifc.pl/islandora/object/pl-gd%3A57883/datastream/PDF/view
!!!URL-scan: https://polish.musicsources.pl/pl/lokalizacje/galeria/klocki-introligatorskie/655 @EN{Scan on Polish Music Herritage in Open Access Website} @PL{Skany w portalu Dziedzictwo Muzyki Polskiej w otwartym dostępie}
!!!ONB-nifc: UWAGA: zbiór na stronach: Canto: s. 694-704, Alto: s. 542-552, Tenore: s. 390-400, Basso: s. 237-248, Quinto: s. 85-96, Sesto: s. 3-14. Uwaga: utwory podzielone wg tytułów w spisach treści dostępnych na końcu każdej księgi głosowej.
!!!Key: a:aeo
!!!AIN: 1 alto 1 bass 2 soprn 2 tenor
!!!key:
**kern	**text	**kern	**text	**kern	**text	**kern	**text	**kern	**text	**kern	**text
*part6	*part6	*part5	*part5	*part4	*part4	*part3	*part3	*part2	*part2	*part1	*part1
*staff6	*staff6	*staff5	*staff5	*staff4	*staff4	*staff3	*staff3	*staff2	*staff2	*staff1	*staff1
*I"SESTO	*	*I"QUINTO	*	*I"BASSO	*	*I"TENORE	*	*I"ALTO	*	*I"CANTO	*
*I'voce umana 2	*	*I'voce umana 1	*	*I'B	*	*I'T	*	*I'A	*	*I'S	*
*Itenor	*	*Isoprn	*	*Ibass	*	*Itenor	*	*Ialto	*	*Isoprn	*
*ICvox	*	*ICvox	*	*ICvox	*	*ICvox	*	*Cvox	*	*ICvox	*
*clefC3	*	*clefG2	*	*clefC4	*	*clefC3	*	*clefC2	*	*clefG2	*
*k[]	*	*k[]	*	*k[]	*	*k[]	*	*k[]	*	*k[]	*
*a:	*	*a:	*	*a:	*	*a:	*	*a:	*	*a:	*
*M2/1	*	*M2/1	*	*M2/1	*	*M2/1	*	*M2/1	*	*M2/1	*
*met(c)	*	*met(c)	*	*met(c)	*	*met(c)	*	*met(c)	*	*met(c)	*
=1-	=1-	=1-	=1-	=1-	=1-	=1-	=1-	=1-	=1-	=1-	=1-
0r	.	0r	.	0r	.	00r	.	2r	.	1a	PAr-
.	.	.	.	.	.	.	.	1a	PAr-	.	.
.	.	.	.	.	.	.	.	.	.	2cc\	-to
.	.	.	.	.	.	.	.	4g\	-to	2dd\	da
.	.	.	.	.	.	.	.	4f\	da	.	.
=2-	=2-	=2-	=2-	=2-	=2-	=2-	=2-	=2-	=2-	=2-	=2-
1A	PAr-	1cc	PAr-	2r	.	.	.	2e/	voi	1ee	voi
.	.	.	.	1A	PAr-	.	.	1cc	/PAr-	.	.
2c/	-to	2ee\	-to	.	.	.	.	.	.	1r	.
2d\	da	2ff\	da	4G/	-to	.	.	4b\	-to	.	.
.	.	.	.	4F/	da	.	.	4a\	da	.	.
=3-	=3-	=3-	=3-	=3-	=3-	=3-	=3-	=3-	=3-	=3-	=3-
1e	voi	2gg\	voi	1.E	voi	2r	.	1g	voi/	2r,	.
.	.	2g/	Par-	.	.	1e	Ar-	.	.	1gg	Par-
2r	.	4b/	-to	.	.	.	.	2r	.	.	.
.	.	4cc\	da	.	.	.	.	.	.	.	.
1a\	Par-	1dd\	voi	2F/	mio	4d\	-to	1f\	Par-	4ff\	-to
.	.	.	.	.	.	4c/	da	.	.	4ee\	da
=4-	=4-	=4-	=4-	=4-	=4-	=4-	=4-	=4-	=4-	=4-	=4-
.	.	.	.	1G	ſo-	1B	voi	.	.	2dd\	voi
4g\	-to	2b/	mio	.	.	.	.	4e/	-to	1ee	mio
4f\	da	.	.	.	.	.	.	4d/	da	.	.
2e\	voi	0a	ſo-	0A	-le	4r	.	2c#X/	voi	.	.
.	.	.	.	.	.	4A/	mio	.	.	.	.
2f\	mio	.	.	.	.	2.a\	ſo-	2d/	mio	2.dd\	ſo-
=5-	=5-	=5-	=5-	=5-	=5-	=5-	=5-	=5-	=5-	=5-	=5-
!	!	!	!	!	!	!	!	!LO:SIC:v:t=custos f	!	!	!
2e\	ſo-	.	.	.	.	.	.	1e	ſo-	.	.
.	.	.	.	.	.	8g\	.	.	.	8cc#X\	.
.	.	.	.	.	.	8f\	.	.	.	8b\	.
2A/	-le	.	.	.	.	2e\	.	.	.	2cc#X\	.
!	!	!	!	!	!	!	!	!LO:LB:g=original	!	!	!
4r	.	1a	-le	2r	.	1d	-e	1f#X	-le	1dd	-le
4D/	Sen-	.	.	.	.	.	.	.	.	.	.
1d\	-Z` al-	.	.	2D/	Sen-	.	.	.	.	.	.
=6-	=6-	=6-	=6-	=6-	=6-	=6-	=6-	=6-	=6-	=6-	=6-
!LO:SIC:v:t=custos B	!	!	!	!	!	!	!	!	!	!	!
.	.	2r	.	1G	-Z` al-	2B/	Sen-	1g	Sen-	2r	.
!	!	!	!	!	!	!LO:TX:t=P:problem:dźwięk poprawiony żółtym kolorem	!	!	!	!LO:SIC:v:t=custos gg	!
!LO:LB:g=original	!	!	!	!	!	!	!	!	!	!	!
2B/	-ma	2b/	Sen-	.	.	2.g\	-Z` al-	.	.	2dd\	Sen-
!	!	!	!	!	!	!	!	!	!	!LO:LB:g=original	!
4r	.	1ee	-Z` al-	1E	-ma	.	.	1bn	-Z` al-	1gg	-Z` al-
4B/	/Sen-	.	.	.	.	4e\	-ma	.	.	.	.
!	!	!	!	!	!	!LO:SIC:v:t=custos e	!	!	!	!	!
2e\	-Z` al-	.	.	.	.	2r	.	.	.	.	.
=7-	=7-	=7-	=7-	=7-	=7-	=7-	=7-	=7-	=7-	=7-	=7-
!	!	!	!	!	!	!LO:LB:g=original	!	!	!	!	!
2A/	-ma/	2ccn\	-ma	4r	.	4r	.	2a\	e`r	2ee\	-ma
.	.	.	.	4A/	e`r	4e\	e`r	.	.	.	.
!	!	!LO:SIC:v:t=custos dd	!	!	!	!	!	!	!	!	!
2r	.	2r	.	2.d\	ſen-	2f\	ſen-	2a\	ſen-	4r	.
.	.	.	.	.	.	.	.	.	.	4a/	e`r
!	!	!LO:LB:g=original	!	!	!	!	!	!	!	!	!
1r	.	1r	.	.	.	2d\	-Za	4f#X\	-Za	4a/	ſen-
.	.	.	.	4B\	-Za	.	.	2g\	co-	4b/	-Za
!	!	!	!	!LO:LB:g=original	!	!	!	!	!	!	!
.	.	.	.	2A/	co-	2c/	co-	.	.	2ccny\	co-
.	.	.	.	.	.	.	.	4f#X\	.	.	.
=8-	=8-	=8-	=8-	=8-	=8-	=8-	=8-	=8-	=8-	=8-	=8-
4r	.	4r	.	0G	-re	4d\	-re	0g	-re	1b	-re
4d\	e`r	4dd\	e`r	.	.	4B/	e`r	.	.	.	.
2.B/	ſen-	2.gg\	ſen-	.	.	2.d\	ſen-	.	.	.	.
.	.	.	.	.	.	.	.	.	.	1r	.
4c/	-Za	4ee\	-Za	.	.	4c/	-Za	.	.	.	.
2d\	co-	2dd\	co-	.	.	2B/	co-	.	.	.	.
=9-	=9-	=9-	=9-	=9-	=9-	=9-	=9-	=9-	=9-	=9-	=9-
2e\	-re	2cc\	-re	4r	.	2c/	-re	4r	.	4r	.
.	.	.	.	4c\	E	.	.	4g\	E	4ee\	E
4r	.	4r	.	2.c\	ciò	2r	.	2g\	ciò	2gg\	ciò
4c/	E	4ee\	E	.	.	.	.	.	.	.	.
4e\	ciò	4gg\	ciò	.	.	1r	.	4cc\	con-	1r	.
4d\	con-	4ff\	con-	4d\	con-	.	.	2a\	ſen-	.	.
4c#X\	ſen-	4ee\	ſen-	4A/	ſen-	.	.	.	.	.	.
4d\	-t`A-	4dd\	-t`A-	4B-X\	-t`A-	.	.	4fny\	-t`A-	.	.
=10-	=10-	=10-	=10-	=10-	=10-	=10-	=10-	=10-	=10-	=10-	=10-
2e\	-mo-	2cc#X\	-mo-	2A/	-mo-	1r	.	2a\	-mo-	1r	.
2e\	-re	2cc#\	-re	2A/	-re	.	.	2a\	-re	.	.
2r	.	2r	.	2r	.	2r	.	2r	.	2r	.
1A/	Ahi	1ff\	Ahi	1F/	Ahi	1f\	Ahi	1a\	Ahi	1cc\	A-
=11-	=11-	=11-	=11-	=11-	=11-	=11-	=11-	=11-	=11-	=11-	=11-
!LO:SIC:v:t=custos c	!	!	!	!	!	!	!	!	!	!	!
.	.	.	.	.	.	.	.	.	.	.	-hi
!LO:LB:g=original	!	!	!	!	!	!	!	!	!	!	!
2.cny/	Ahi	2r	.	4C/	che	4e\	che	4g\	che	2.ee\	ahi
!	!	!	!	!	!	!	!	!LO:SIC:v:t=custos e	!	!	!
.	.	.	.	4D/	par-	4f\	par-	4f\	par-	.	.
!	!	!	!	!	!	!	!	!LO:LB:g=original	!	!	!
.	.	2r	.	1E	-ten-	2g\	-ten-	1e	-ten-	.	.
8B/	che	.	.	.	.	.	.	.	.	8dd\	che
8A/	par-	.	.	.	.	.	.	.	.	8cc\	par-
4G/	-ten-	2.ee\	Ahi	.	.	2g\	-do	.	.	4b/	-ten-
4A/	-d`io	.	.	.	.	.	.	.	.	4a/	-d`io
=12-	=12-	=12-	=12-	=12-	=12-	=12-	=12-	=12-	=12-	=12-	=12-
1B	mo-	.	.	1E	-d`io	2r	.	1e	-do	2g#X/	mo-
.	.	8dd\	che	.	.	.	.	.	.	.	.
.	.	8ccny\	par-	.	.	.	.	.	.	.	.
!	!	!	!	!	!	!	!	!	!	!LO:SIC:v:t=custos ee	!
.	.	4b/	-ten-	.	.	2.e\	Ahi	.	.	2g#/	-ro
!	!	!LO:SIC:v:t=custos g	!	!	!	!	!	!	!	!	!
.	.	4a/	-d`io	.	.	.	.	.	.	.	.
!	!	!	!	!	!	!	!	!	!	!LO:LB:g=original	!
!	!	!LO:LB:g=original	!	!	!	!	!	!	!	!	!
1B	-ro	2g#X/	mo-	0.E	mo-	.	.	2r	.	2.ee\	/ahi
.	.	.	.	.	.	8d\	che	.	.	.	.
!	!	!	!	!	!	!LO:SIC:v:t=custos B	!	!	!	!	!
.	.	.	.	.	.	8c/	par-	.	.	.	.
!	!	!	!	!	!	!LO:LB:g=original	!	!	!	!	!
.	.	2g#/	-ro	.	.	4B/	-ten-	2e/	io	.	.
.	.	.	.	.	.	4A/	-d`io	.	.	8dd\	che
.	.	.	.	.	.	.	.	.	.	8cc\	par-
=13-	=13-	=13-	=13-	=13-	=13-	=13-	=13-	=13-	=13-	=13-	=13-
2r	.	2.ee\	Ahi	.	.	2G#X/	mo-	0e	mo-	4b/	-ten-
.	.	.	.	.	.	.	.	.	.	4a/	-d`io
4r	.	.	.	.	.	2B/	-ro	.	.	2g#X/	mo-
4B/	io	8dd\	che	.	.	.	.	.	.	.	.
.	.	8cc\	par-	.	.	.	.	.	.	.	.
1.B	mo-	4b/	-ten-	.	.	1r	.	.	.	2g#/	-ro/
.	.	4a/	-d`io	.	.	.	.	.	.	.	.
.	.	1g#X/	mo-	.	.	.	.	.	.	4r	.
.	.	.	.	.	.	.	.	.	.	4e/	io
=14-	=14-	=14-	=14-	=14-	=14-	=14-	=14-	=14-	=14-	=14-	=14-
.	.	.	.	1E	-ro	1r	.	1B	-ro	2e/	mo-
2E/	-ro	2g#/	-ro	.	.	.	.	.	.	2e/	-ro
1r	.	4r	.	4r	.	4r	.	1r	.	4r	.
.	.	4.cc\	Ma	4.A/	Ma	4.e\	Ma	.	.	4.ee\	Ma
.	.	8cc\	ſe`l	8A/	ſe`l	8a\	ſe`l	.	.	8ee\	ſe`l
!	!	!	!	!LO:SIC:v:t=custos e	!	!	!	!	!	!	!
.	.	4dd\	ciel	4d\	ciel	4a\	ciel	.	.	4ff#X\	ciel
=15-	=15-	=15-	=15-	=15-	=15-	=15-	=15-	=15-	=15-	=15-	=15-
!	!	!	!	!LO:LB:g=original	!	!	!	!	!	!	!
0r	.	4b/	co-	4e\	co-	4g\	co-	0r	.	4gg\	co-
.	.	4cc\	-ſi	4c\	-ſi	4g\	-ſi	.	.	4ee\	-ſi
.	.	2a/	vuo-	2d\	vuo-	2f#X\	vuo-	.	.	2dd\	vuo-
.	.	2b/	-le	2G/	-le	2g\	-le	.	.	2dd\	-le
.	.	4cc\	Che	4E/	Che	4g\	Che	.	.	4ee\	Che
.	.	2a/	poſ-	2F/	poſ-	2fny\	poſ-	.	.	2cc\	poſ-
=16-	=16-	=16-	=16-	=16-	=16-	=16-	=16-	=16-	=16-	=16-	=16-
1r	.	.	.	.	.	.	.	1r	.	.	.
!	!	!LO:SIC:v:t=custos f	!	!	!	!	!	!	!	!	!
.	.	4gny/	s`io	4G/	s`io	4d\	s`io	.	.	4b/	s`io
!	!	!LO:LB:g=original	!	!	!	!	!	!	!	!	!
.	.	2f#X/	far	2D/	far	2d\	far	.	.	2a/	far
2r	.	2r	.	2r	.	1r	.	2r	.	2r	.
1g\	oh	1ee\	oh	1C/	oh	.	.	1e\	oh	1gg\	oh
=17-	=17-	=17-	=17-	=17-	=17-	=17-	=17-	=17-	=17-	=17-	=17-
!	!	!	!	!	!	!	!	!	!	!LO:SIC:v:t=custos ff	!
.	.	.	.	.	.	00r	.	.	.	.	.
!	!	!	!	!	!	!	!	!	!	!LO:LB:g=original	!
2d\	che	1dd	che	2D/	che	.	.	2a\	che	2ff\	che
1e	gra-	.	.	1A	gra-	.	.	1a	gra-	1.ee	gra-
.	.	1cc\	gra-	.	.	.	.	.	.	.	.
=18-	=18-	=18-	=18-	=18-	=18-	=18-	=18-	=18-	=18-	=18-	=18-
2e\	ve	.	.	2A/	-ve	.	.	2a\	-ve	.	.
4d\	.	1dd	ve	2F/	mar-	.	.	2a\	mar-	1ff	-ve
4c/	.	.	.	.	.	.	.	.	.	.	.
2B/	.	.	.	0G	-ti-	.	.	0g	-ti-	.	.
!LO:SIC:v:t=custos d	!	!	!	!	!	!	!	!	!	!	!
2c/	mar-	1cc\	mar-	.	.	.	.	.	.	2ee\	mar-
=19-	=19-	=19-	=19-	=19-	=19-	=19-	=19-	=19-	=19-	=19-	=19-
!LO:LB:g=original	!	!	!	!	!	!	!	!	!	!	!
1d	-ti-	.	.	.	.	1r	.	.	.	1dd	-ti-
.	.	2b/	-ti-	.	.	.	.	.	.	.	.
2c/	-re	4cc\	-re	4C/	-re	4r	.	1g	-re	2ee\	-re
!	!	!	!	!	!	!LO:SIC:v:t=custos e	!	!	!	!	!
.	.	4ee\	Pur	4c\	Pur	4g\	Pur	.	.	.	.
!	!	!	!	!	!	!LO:LB:g=original	!	!	!	!	!
2r	.	4.ee\	mi	4.c\	mi	4e\	mi	.	.	2r	.
.	.	.	.	.	.	4c\	con-	.	.	.	.
.	.	8dd\	con-	8B\	con-	.	.	.	.	.	.
=20-	=20-	=20-	=20-	=20-	=20-	=20-	=20-	=20-	=20-	=20-	=20-
0r	.	4cc\	-vie(n)	4A/	-vie(n)	4e\	-vie(n)	2r	.	2r	.
!	!	!	!	!LO:SIC:v:t=custos d	!	!	!	!	!	!	!
.	.	4b/	par-	4G/	par-	2g\	par-	.	.	.	.
!	!	!	!	!LO:LB:g=original	!	!	!	!	!	!	!
.	.	4.a/	-ti-	2d\	-ti-	.	.	4r	.	4r	.
.	.	.	.	.	.	4f#X\	-ti-	4d/	Pur	4dd\	Pur
.	.	16g/	.	.	.	.	.	.	.	.	.
.	.	16a/	.	.	.	.	.	.	.	.	.
.	.	4.b\	.	2G/	-re	2g\	-re	4.g\	mi	4.dd\	mi
.	.	8a/	.	.	.	.	.	8f\	con-	8dd\	con-
.	.	8b/	.	2r	.	2r	.	4e/	-vie(n)	4gg\	-vie(n)
.	.	8cc\	.	.	.	.	.	.	.	.	.
!	!	!	!	!	!	!	!	!LO:SIC:v:t=custos a	!	!	!
.	.	2dd\	.	.	.	.	.	4d/	par-	4ff\	par-
=21-	=21-	=21-	=21-	=21-	=21-	=21-	=21-	=21-	=21-	=21-	=21-
!	!	!LO:SIC:v:t=custos cc	!	!	!	!	!	!	!	!	!
!	!	!	!	!	!	!	!	!LO:LB:g=original	!	!	!
1r	.	.	.	1r	.	1r	.	2a\	-ti-	2ee\	-ti-
.	.	4cc#X\	.	.	.	.	.	.	.	.	.
!	!	!LO:LB:g=original	!	!	!	!	!	!	!	!	!
.	.	4dd\	-re	.	.	.	.	4d/	-re	4ff\	-re
.	.	4b/	A	.	.	.	.	4g\	A	4dd\	A
4r	.	2b/	dio	4r	.	4r	.	2g\	dio	2dd\	dio
4d\	A	.	.	4G/	A	4B/	A	.	.	.	.
2d\	dio	4r	.	2G/	dio	2B/	dio	4r	.	4r	.
.	.	4dd\	A	.	.	.	.	4g\	A	4b/	A
=22-	=22-	=22-	=22-	=22-	=22-	=22-	=22-	=22-	=22-	=22-	=22-
4r	.	2ee\	dio	4r	.	4r	.	2e/	dio	2b/	dio
4g#X\	/A	.	.	4E/	/A	4e\	/A	.	.	.	.
2a\	dio/	4r	.	2A/	dio/	2e\	dio/	4r	.	4r	.
!	!	!	!	!	!	!	!	!	!	!LO:SIC:v:t=custos cc	!
.	.	4ee\	/A	.	.	.	.	4e/	/A	4cc#X\	A
!	!	!	!	!	!	!	!	!	!	!LO:LB:g=original	!
4r	.	2ee\	dio/	4r	.	4r	.	2a\	dio/	2cc#\	dio
4a\	A	.	.	4A/	A	4e\	A	.	.	.	.
2a\	dio	2r	.	4.d\	dio	4fny\	dio	4r	.	2dd\	mio
.	.	.	.	.	.	4f\	mio	4a\	mio	.	.
.	.	.	.	8c\	mio	.	.	.	.	.	.
=23-	=23-	=23-	=23-	=23-	=23-	=23-	=23-	=23-	=23-	=23-	=23-
0r	.	1r	.	4B-X\	bel	4.f\	bel	4b-X\	bel	4dd\	bel
.	.	.	.	4F/	te-	.	.	4cc\	te-	4a/	te-
.	.	.	.	.	.	8f\	te-	.	.	.	.
.	.	.	.	2c\	-ſo-	2e\	-ſo-	2g\	-ſo-	2ccny\	-ſo-
.	.	2r	.	1F	-ro	1f	-ro	0a	-ro	0cc	-ro
.	.	1ff\	A-	.	.	.	.	.	.	.	.
=24-	=24-	=24-	=24-	=24-	=24-	=24-	=24-	=24-	=24-	=24-	=24-
1.f	Ahi-	.	-hi-	0r	.	00r	.	.	.	.	.
.	.	4ee\	-me	.	.	.	.	.	.	.	.
.	.	4dd\	ch`io	.	.	.	.	.	.	.	.
.	.	2ccny\	par-	.	.	.	.	2r	.	2r	.
4e\	-me	2g/	-to	.	.	.	.	1cc\	A-	1ee\	A-
4d\	ch`io	.	.	.	.	.	.	.	.	.	.
=25-	=25-	=25-	=25-	=25-	=25-	=25-	=25-	=25-	=25-	=25-	=25-
2c/	par-	4r	.	0r	.	.	.	.	-hi-	.	-hi-
.	.	4gg\	ch`io	.	.	.	.	.	.	.	.
2d\	-t`e	4gg\	par-	.	.	.	.	4bny\	-me	4dd\	-me
.	.	4ff\	-t`e	.	.	.	.	4a\	ch`io	4cc\	ch`io
0e	mo-	0ee	mo-	.	.	.	.	2g#X\	par-	2b/	par-
.	.	.	.	.	.	.	.	1a\	-to e	2a/	-t`e
=26-	=26-	=26-	=26-	=26-	=26-	=26-	=26-	=26-	=26-	=26-	=26-
!	!	!LO:SIC:v:t=custos ee	!	!	!	!	!	!LO:SIC:v:t=custos g	!	!	!
.	.	.	.	1r	.	1r	.	.	.	1b	mo-
!	!	!	!	!	!	!	!	!LO:LB:g=original	!	!	!
.	.	.	.	.	.	.	.	2g#X\	mo-	.	.
!	!	!LO:LB:g=original	!	!	!	!	!	!	!	!	!
2A/	-ro	4ee\	-ro	4r	.	4r	.	2a\	-ro	4cc#X\	-ro
!	!	!LO:TX:t=P:problem:krzyżyk dopisany żółtym kolorem	!	!	!	!	!	!	!	!	!
.	.	4.cc#X\	Ma	4.A/	Ma	4.e\	Ma	.	.	4.ee\	Ma
2r	.	.	.	.	.	.	.	2r	.	.	.
.	.	8cc#\	ſe`l	8A/	ſe`l	8a\	ſe`l	.	.	8ee\	ſe`l
!	!	!	!	!LO:SIC:v:t=custos e	!	!LO:SIC:v:t=custos g	!	!	!	!	!
.	.	4dd\	ciel	4d\	ciel	4a\	ciel	.	.	4ff#X\	ciel
=27-	=27-	=27-	=27-	=27-	=27-	=27-	=27-	=27-	=27-	=27-	=27-
!	!	!	!	!LO:LB:g=original	!	!	!	!	!	!	!
!	!	!	!	!	!	!LO:LB:g=original	!	!	!	!	!
!	!	!	!	!LO:LB:g=original	!	!	!	!	!	!	!
0r	.	4b/	co-	4e\	co-	4g\	co-	0r	.	4gg\	co-
.	.	4ccny\	-ſi	4c\	-ſi	4g\	-ſi	.	.	4ee\	-ſi
.	.	2a/	vuo-	2d\	vuo-	2f#X\	vuo-	.	.	2dd\	vuo-
!	!	!	!	!	!	!	!	!	!	!LO:SIC:v:t=custos ee	!
.	.	2b/	-le	2G/	-le	2g\	-le	.	.	2dd\	-le
!	!	!	!	!	!	!	!	!	!	!LO:LB:g=original	!
.	.	4cc\	Che	4E/	Che	4g\	Che	.	.	4ee\	Che
.	.	2a/	poſ-	2F/	poſ-	2fny\	poſ-	.	.	2ccny\	poſ-
=28-	=28-	=28-	=28-	=28-	=28-	=28-	=28-	=28-	=28-	=28-	=28-
!LO:SIC:v:t=custos g	!	!	!	!	!	!	!	!	!	!	!
1r	.	.	.	.	.	.	.	1r	.	.	.
.	.	4g/	-s`io	4G/	-s`io	4d\	-s`io	.	.	4b/	-s`io
.	.	2f#X/	far	2D/	far	2d\	far	.	.	2a/	far
!LO:LB:g=original	!	!	!	!	!	!	!	!	!	!	!
2r	.	2r	.	2r	.	1r	.	2r	.	2r	.
1gny\	oh	1ee\	oh	1C/	oh	.	.	1e\	oh	1gg\	oh
=29-	=29-	=29-	=29-	=29-	=29-	=29-	=29-	=29-	=29-	=29-	=29-
.	.	.	.	.	.	00r	.	.	.	.	.
2d\	che	1dd	che	2D/	che	.	.	2a\	che	2ffny\	che
1e\	gra-	.	.	1A	gra-	.	.	1a	gra-	1.ee	gra-
.	.	1cc\	gra-	.	.	.	.	.	.	.	.
=30-	=30-	=30-	=30-	=30-	=30-	=30-	=30-	=30-	=30-	=30-	=30-
2e\	-ve	.	.	2A\	-ve	.	.	2a\	-ve	.	.
4d\	.	1dd	-ve	2F/	mar-	.	.	2a\	mar-	1ff	-ve
4c/	.	.	.	.	.	.	.	.	.	.	.
2B/	.	.	.	0G	-ti-	.	.	0gny	-ti-	.	.
2c/	mar-	1cc\	mar-	.	.	.	.	.	.	2ee\	mar-
=31-	=31-	=31-	=31-	=31-	=31-	=31-	=31-	=31-	=31-	=31-	=31-
1d	-ti-	.	.	.	.	1r	.	.	.	1dd	-ti-
.	.	2b/	-ti-	.	.	.	.	.	.	.	.
2c/	-re	4cc\	-re	4C/	-re	4r	.	1g	-re	2ee\	-re
.	.	4ee\	Pur	4c\	Pur	4g\	Pur	.	.	.	.
2r	.	4.ee\	mi	4.c\	mi	4e\	mi	.	.	2r	.
.	.	.	.	.	.	4c\	con-	.	.	.	.
!	!	!LO:SIC:v:t=custos cc	!	!	!	!	!	!	!	!	!
.	.	8dd\	con-	8Bny\	con-	.	.	.	.	.	.
=32-	=32-	=32-	=32-	=32-	=32-	=32-	=32-	=32-	=32-	=32-	=32-
!	!	!LO:LB:g=original	!	!	!	!	!	!	!	!	!
0r	.	4cc\	-vien	4A/	-vie(n)	4e\	-vie(n)	2r	.	2r	.
!	!	!	!	!LO:SIC:v:t=custos d	!	!	!	!	!	!	!
.	.	4b/	par-	4G/	par-	2g\	par-	.	.	.	.
!	!	!	!	!LO:LB:g=original	!	!	!	!	!	!	!
.	.	4.a/	-ti-	2d\	-ti-	.	.	4r	.	4r	.
.	.	.	.	.	.	4f#X\	-ti-	4d/	Pur	4dd\	Pur
.	.	16g/	.	.	.	.	.	.	.	.	.
.	.	16a/	.	.	.	.	.	.	.	.	.
.	.	4.b/	.	2G/	-re	2g\	-re	4.g\	mi	4.dd\	mi
.	.	8a/	.	.	.	.	.	8f\	con-	8dd\	con-
.	.	8b/	.	2r	.	2r	.	4e/	-vie(n)	4gg\	-vien
.	.	8cc\	.	.	.	.	.	.	.	.	.
.	.	2dd\	.	.	.	.	.	4d/	par-	4ff\	par-
=33-	=33-	=33-	=33-	=33-	=33-	=33-	=33-	=33-	=33-	=33-	=33-
1r	.	.	.	1r	.	1r	.	2a\	-ti-	2ee\	-ti-
.	.	4cc#X\	.	.	.	.	.	.	.	.	.
.	.	4dd\	-re	.	.	.	.	4d/	-re	4ff\	-re
.	.	4b/	A	.	.	.	.	4g\	A	4dd\	A
!	!	!	!	!	!	!	!	!LO:SIC:v:t=custos g	!	!LO:SIC:v:t=custos b	!
4r	.	2b/	dio	4r	.	4r	.	2g\	dio	2dd\	dio
4d\	A	.	.	4G/	A	4B/	A	.	.	.	.
!	!	!	!	!	!	!LO:SIC:v:t=custos e	!	!	!	!	!
!	!	!	!	!	!	!	!	!	!	!LO:LB:g=original	!
!	!	!	!	!	!	!	!	!LO:LB:g=original	!	!	!
2d\	dio	4r	.	2G/	dio	2B/	dio	4r	.	4r	.
.	.	4dd\	A	.	.	.	.	4g\	A	4b/	A
=34-	=34-	=34-	=34-	=34-	=34-	=34-	=34-	=34-	=34-	=34-	=34-
!	!	!	!	!	!	!LO:LB:g=original	!	!	!	!	!
4r	.	2ee\	dio	4r	.	4r	.	2e/	dio	2b/	dio
4g#X\	/A	.	.	4E/	/A	4e\	/A	.	.	.	.
2a\	dio/	4r	.	2A/	dio/	2e\	dio/	4r	.	4r	.
.	.	4ee\	/A	.	.	.	.	4e/	/A	4cc#X\	A
4r	.	2ee\	dio/	4r	.	4r	.	2a\	dio/	2cc#X\	dio
4a\	/A	.	.	4A/	A	4e\	A	.	.	.	.
2a\	dio/	2r	.	4.d\	dio	4f\	dio	4r	.	2dd\	mio
.	.	.	.	.	.	4f\	mio	4a\	mio	.	.
.	.	.	.	8c\	mio	.	.	.	.	.	.
=35-	=35-	=35-	=35-	=35-	=35-	=35-	=35-	=35-	=35-	=35-	=35-
0r	.	1r	.	4B-X\	bel	4.f\	bel	4b-X\	bel	4dd\	bel
.	.	.	.	4F/	te-	.	.	4cc\	te-	4a/	te-
.	.	.	.	.	.	8f\	te-	.	.	.	.
.	.	.	.	2c\	-ſo-	2e\	-ſo-	2g\	-ſo-	2ccny\	-ſo-
.	.	2r	.	1F	-ro	1f	-ro	0a	-ro	0cc	-ro
.	.	1ff\	Ahi-	.	.	.	.	.	.	.	.
=36-	=36-	=36-	=36-	=36-	=36-	=36-	=36-	=36-	=36-	=36-	=36-
1.f	Ahi-	.	.	00r	.	00r	.	.	.	.	.
.	.	4ee\	-me	.	.	.	.	.	.	.	.
!	!	!LO:SIC:v:t=custos cc	!	!	!	!	!	!	!	!	!
.	.	4dd\	ch`io	.	.	.	.	.	.	.	.
!	!	!LO:LB:g=original	!	!	!	!	!	!	!	!	!
.	.	2ccny\	par-	.	.	.	.	2r	.	2r	.
4e\	-me	2g/	-to	.	.	.	.	1cc\	Ahi-	1ee\	Ahi-
!LO:SIC:v:t=custos c	!	!	!	!	!	!	!	!	!	!	!
4d\	ch`io	.	.	.	.	.	.	.	.	.	.
=37-	=37-	=37-	=37-	=37-	=37-	=37-	=37-	=37-	=37-	=37-	=37-
!LO:LB:g=original	!	!	!	!	!	!	!	!	!	!	!
2c/	par-	4r	.	.	.	.	.	.	.	.	.
.	.	4gg\	ch`io	.	.	.	.	.	.	.	.
2d\	-to	4gg\	par-	.	.	.	.	4bny\	-me	4dd\	-me
.	.	4ff\	-to	.	.	.	.	4a\	ch`io	4cc\	ch`io
0e	e mo-	0ee	e mo-	.	.	.	.	2g#X\	par-	2b/	par-
.	.	.	.	.	.	.	.	1a\	-to-	2a/	-to
=38-	=38-	=38-	=38-	=38-	=38-	=38-	=38-	=38-	=38-	=38-	=38-
.	.	.	.	00r	.	1r	.	.	.	1b	e mo-
.	.	.	.	.	.	.	.	2g#X\	-e mo-	.	.
4A/	-ro	4ee\	-ro	.	.	4r	.	4a\	-ro	4cc#X\	-ro
!	!	!	!	!	!	!	!	!LO:SIC:v:t=custos a	!	!LO:SIC:v:t=custos dd	!
4e\	A	4ee\	A	.	.	4A/	A	4a\	A	4cc#\	A
!	!	!	!	!	!	!	!	!	!	!LO:LB:g=original	!
!	!	!	!	!	!	!	!	!LO:LB:g=original	!	!	!
4d\	dio	4.ff\	dio	.	.	4.d\	dio	4a\	dio	2dd\	dio
4f\	mio	.	.	.	.	.	.	4a\	mio	.	.
.	.	8ee\	mio	.	.	8c/	mio	.	.	.	.
=39-	=39-	=39-	=39-	=39-	=39-	=39-	=39-	=39-	=39-	=39-	=39-
4.f\	bel	4dd\	bel	.	.	4B-X/	bel	4b-X\	bel	1r	.
.	.	4cc\	te-	.	.	4F/	te-	4a\	te-	.	.
8f\	te-	.	.	.	.	.	.	.	.	.	.
2e\	-ſo-	2cc\	-ſo-	.	.	2c/	-ſo-	2gny\	-ſo-	.	.
1f	-ro	1cc	-ro	.	.	2.F/	-ro	0a	-ro	2r	.
.	.	.	.	.	.	.	.	.	.	1ff\	Ahi-
.	.	.	.	.	.	4G/	.	.	.	.	.
=40-	=40-	=40-	=40-	=40-	=40-	=40-	=40-	=40-	=40-	=40-	=40-
!	!	!	!	!	!	!LO:SIC:v:t=custos e	!	!	!	!	!
2r	.	1.cc	Ahi-	1.F	Ahi-	1A	.	.	.	.	.
1a	Ahi-	.	.	.	.	.	.	.	.	4ee\	-me
.	.	.	.	.	.	.	.	.	.	4dd\	ch`io
!	!	!	!	!	!	!LO:LB:g=original	!	!	!	!	!
.	.	.	.	.	.	2r	.	2r	.	2.ccny\	par-
4gny\	-me	2gg\	-me	4E/	-me	1e\	Ahi-	1cc\	Ahi-	.	.
!	!	!	!	!LO:SIC:v:t=custos C	!	!	!	!	!	!	!
4f\	ch`io	.	.	4D/	ch`io	.	.	.	.	4dd\	.
=41-	=41-	=41-	=41-	=41-	=41-	=41-	=41-	=41-	=41-	=41-	=41-
!	!	!	!	!LO:LB:g=original	!	!	!	!	!	!	!
4e\	par-	4r	.	2C/	par-	.	.	.	.	2ee\	.
4c\	-to	4g/	ch`io	.	.	.	.	.	.	.	.
2r	.	1dd	par-	2D/	-to e	4d\	-me	4bny\	-me	2ff\	-to
.	.	.	.	.	.	4c/	ch`io	4a\	ch`io	.	.
1e	e	.	.	0E	mo-	2B/	par-	2g#X\	par-	0ee	e mo-
.	.	2cc\	-t`e	.	.	2A/	-to e	1a\	-to e	.	.
=42-	=42-	=42-	=42-	=42-	=42-	=42-	=42-	=42-	=42-	=42-	=42-
1e	mo-	1b	mo-	.	.	1B	mo-	.	.	.	.
.	.	.	.	.	.	.	.	2g#X\	mo-	.	.
0.e	-ro.	0cc#X	-ro.	0.A	-ro.	0.A	-ro.	0.a	-ro.	0.ee	-ro.
=43-	=43-	=43-	=43-	=43-	=43-	=43-	=43-	=43-	=43-	=43-	=43-
.	.	.	.	.	.	.	.	.	.	.	.
.	.	1r	.	.	.	.	.	.	.	.	.
=-	=-	=-	=-	=-	=-	=-	=-	=-	=-	=-	=-
*-	*-	*-	*-	*-	*-	*-	*-	*-	*-	*-	*-
!!!system-decoration: [(s1,s2,s3,s4,s5,s6)]
!!!ENC: Filip Voros
!!!END: 2022-06-12
!!!ENC: Urszula Świątek
!!!END: 2022-07-22
